X: 40066
T: Thrunton Woods
R: polka
M: 2/4
K: Gmajor
D2||G/A/B/G/ cB/c/|dd/B/ cB/c/|d/c/B/A/ G/A/B/G/|AF/A/ G/F/E/D/|
G/A/B/G/ cB/c/|dd/B/ cB/c/|d/c/B/A/ G/A/B/G/|1 A/c/F/A/ GD:|2 A/c/F/A/ GB/c/||
|:d/B/g/B/ dc/d/|e>d e/d/c/A/|dd/e/ f/g/a/f/|b/a/g/e/ dB/c/|
d/B/g/B/ dc/d/|e>d e/d/c/A/|dd/e/ f/g/a/f/|1 b/a/g/f/ gB/c/:|2 b/a/g/f/ g2||

